X:18046
T:Untitled. JC.166
M:3/8
L:1/8
Q:30
S:John Clare,Poet,Helpstone (1793-1864)
R:Misc.
O:England
A:Northamptonshire
N:See the Bath Waltz, 101.MR. A slur & a 3 are added to the 1st 3 notes.
Z:P Headford
K:D
((3A/B/c/)|ddd|d2A/d/|fff|f2d/f/|a2f/d/|b2g/e/|cc/d/e/c/|d2:|!
|:(f/a/)|(a/g/)g (e/c/)|(e/d/)d (f/a/)|(a/g/)ga|a2(f/a/)|
(a/g/)g (e/d/)|e/d/d a|b/a/b/g/e/c/|d2:|]
